X: 38417
T: Star Of The County Down, The
R: waltz
M: 3/4
K: Gminor
D2 B2 A2|G3 F GA|G2 F2 D2|B3 A Bd|c4 Bc|d2 c2 B2|G4 FD|F6|D2 B2 A2|
G3 F GA|G2 F2 D2|B3 A Bd|c4 Bc|d2 c2 B2|GA- A2 F2|G6||
GA Bc de|f2 d4|d2 c2 B2|c3 B cd|c4 Bc|d2 c2 B2|G4 FD|F6|D2 B2 A2|
G3 F GA|G2 F2 D2|B3 A Bd|c4 Bc|d2 c2 B2|G2 A3 F|G6||

